icons/linear-ele-finance-coin.svg

<svg xmlns="http://www.w3.org/2000/svg" width="32px" height="32px" viewBox="0 0 32 32" version="1.1">
    <title>linear-ele-finance-coin</title>
    <g id="linear-ele-finance-coin" stroke-width="1" fill-rule="evenodd">
        <path d="M16,3 C23.108841,3 29,5.94557952 29,10 C29,11.0936293 28.5713692,12.1065811 27.8058275,13.0028084 C28.5786288,13.9082686 29,14.924591 29,16 C29,17.0932215 28.5716887,18.1058257 27.8066837,19.0018058 C28.5781618,19.9071441 29,20.9234835 29,22 C29,26.0544205 23.108841,29 16,29 C8.89115903,29 3,26.0544205 3,22 C3,20.924164 3.42160012,19.9077216 4.19413875,19.0014622 C3.42831126,18.1058257 3,17.0932215 3,16 C3,14.9252553 3.42113331,13.9088119 4.19327082,13.0025125 C3.42863084,12.1065811 3,11.0936293 3,10 C3,5.94557952 8.89115903,3 16,3 Z M26.310415,20.3297603 L26.1511163,20.4377806 C23.7568101,22.0302782 20.0788432,23 16,23 C11.83058,23 8.08003794,21.9867317 5.69128486,20.3307716 C5.22853951,20.8814264 5,21.4454534 5,22 C5,24.5729965 9.85400697,27 16,27 C22.145993,27 27,24.5729965 27,22 C27,21.4452684 26.7710332,20.8807116 26.310415,20.3297603 Z M26.3100012,14.3293792 L26.1511163,14.4377806 C23.7568101,16.0302782 20.0788432,17 16,17 C11.8294261,17 8.07796212,15.9861708 5.68930198,14.3293792 C5.22838395,14.881401 5,15.4452011 5,16 C5,18.5729965 9.85400697,21 16,21 C22.145993,21 27,18.5729965 27,16 C27,15.5067566 26.8192742,15.0061141 26.4551499,14.5136426 L26.3100012,14.3293792 Z M16,5 C9.85400697,5 5,7.42700349 5,10 C5,12.5729965 9.85400697,15 16,15 C22.145993,15 27,12.5729965 27,10 C27,7.42700349 22.145993,5 16,5 Z" id="&#24418;&#29366;" fill-rule="nonzero" />
    </g>
</svg>

<svg xmlns="http://www.w3.org/2000/svg" viewBox="0 0 32 32"><path fill="currentColor" d="M16 3c7.109 0 13 2.946 13 7 0 1.094-.429 2.107-1.194 3.003C28.579 13.908 29 14.925 29 16c0 1.093-.428 2.106-1.193 3.002C28.578 19.907 29 20.923 29 22c0 4.054-5.891 7-13 7S3 26.054 3 22c0-1.076.422-2.092 1.194-2.999C3.428 18.106 3 17.093 3 16c0-1.075.421-2.091 1.193-2.997C3.43 12.107 3 11.093 3 10c0-4.054 5.891-7 13-7m10.31 17.33-.159.108C23.757 22.03 20.08 23 16 23c-4.17 0-7.92-1.013-10.309-2.67C5.23 20.882 5 21.446 5 22c0 2.573 4.854 5 11 5s11-2.427 11-5c0-.555-.229-1.12-.69-1.67m0-6-.159.108C23.757 16.03 20.08 17 16 17c-4.17 0-7.922-1.014-10.31-2.67C5.227 14.88 5 15.444 5 16c0 2.573 4.854 5 11 5s11-2.427 11-5c0-.493-.18-.994-.545-1.486zM16 5C9.854 5 5 7.427 5 10s4.854 5 11 5 11-2.427 11-5-4.854-5-11-5"/></svg>
